X:85
T: Achill Sound
S: "The Ted Furey Collection of Irish Traditional Tunes"
Z: B.Black
L: 1/8
M: 4/4
R: reel
K: G
Bd|eB (3BAB eBdB|A2 GA Bd (3dcd|eB (3BAB eBdB|\
A2 GA BG G2:|
gbag egde|g2 bg ea (3aga|gbag egdB|\
A2 GA BG G2|
gbag egde|g2 bg ea (3aga|bgag egdB|\
A2 GA BG G2||
